symbols/web/fence/materialsymbolsrounded/fence_grad200_48px.svg

<svg xmlns="http://www.w3.org/2000/svg" height="48" width="48"><path d="M12 40.3q-.8 0-1.3-.5t-.5-1.3v-6.7H7.5q-.75 0-1.275-.525Q5.7 30.75 5.7 30q0-.75.525-1.3t1.275-.55h2.7V23.8H7.5q-.75 0-1.275-.525Q5.7 22.75 5.7 22q0-.75.525-1.3t1.275-.55h2.7V14.1q0-.35.125-.675.125-.325.375-.625l4.05-4q.5-.55 1.25-.55t1.3.55l2.7 2.75 2.75-2.75q.55-.55 1.275-.55.725 0 1.275.55l2.75 2.75 2.7-2.75q.55-.55 1.275-.55.725 0 1.275.55l4.05 4q.25.3.4.625.15.325.15.675v6.05h2.6q.75 0 1.3.55t.55 1.3q0 .75-.55 1.275-.55.525-1.3.525h-2.6v4.35h2.6q.75 0 1.3.55t.55 1.3q0 .75-.55 1.275-.55.525-1.3.525h-2.6v6.7q0 .8-.525 1.3t-1.275.5Zm1.85-20.15h4.35v-5.3L16 12.7l-2.15 2.15Zm8 0h4.35v-5.3L24 12.7l-2.15 2.15Zm8.05 0h4.3v-5.3L32 12.7l-2.1 2.15Zm-16.05 8h4.35V23.8h-4.35Zm8 0h4.35V23.8h-4.35Zm8.05 0h4.3V23.8h-4.3Zm-16.05 8.5h4.35V31.8h-4.35Zm8 0h4.35V31.8h-4.35Zm8.05 0h4.3V31.8h-4.3Z"/></svg>

<svg xmlns="http://www.w3.org/2000/svg" height="48" width="48"><path d="M12 40.3Q11.2 40.3 10.7 39.8Q10.2 39.3 10.2 38.5V31.8H7.5Q6.75 31.8 6.225 31.275Q5.7 30.75 5.7 30Q5.7 29.25 6.225 28.7Q6.75 28.15 7.5 28.15H10.2V23.8H7.5Q6.75 23.8 6.225 23.275Q5.7 22.75 5.7 22Q5.7 21.25 6.225 20.7Q6.75 20.15 7.5 20.15H10.2V14.1Q10.2 13.75 10.325 13.425Q10.45 13.1 10.7 12.8L14.75 8.8Q15.25 8.25 16 8.25Q16.75 8.25 17.3 8.8L20 11.55L22.75 8.8Q23.3 8.25 24.025 8.25Q24.75 8.25 25.3 8.8L28.05 11.55L30.75 8.8Q31.3 8.25 32.025 8.25Q32.75 8.25 33.3 8.8L37.35 12.8Q37.6 13.1 37.75 13.425Q37.9 13.75 37.9 14.1V20.15H40.5Q41.25 20.15 41.8 20.7Q42.35 21.25 42.35 22Q42.35 22.75 41.8 23.275Q41.25 23.8 40.5 23.8H37.9V28.15H40.5Q41.25 28.15 41.8 28.7Q42.35 29.25 42.35 30Q42.35 30.75 41.8 31.275Q41.25 31.8 40.5 31.8H37.9V38.5Q37.9 39.3 37.375 39.8Q36.85 40.3 36.1 40.3ZM13.85 20.15H18.2V14.85L16 12.7L13.85 14.85ZM21.85 20.15H26.2V14.85L24 12.7L21.85 14.85ZM29.9 20.15H34.2V14.85L32 12.7L29.9 14.85ZM13.85 28.15H18.2V23.8H13.85ZM21.85 28.15H26.2V23.8H21.85ZM29.9 28.15H34.2V23.8H29.9ZM13.85 36.65H18.2V31.8H13.85ZM21.85 36.65H26.2V31.8H21.85ZM29.9 36.65H34.2V31.8H29.9Z"/></svg>
